X:69
T:The Dark Girl Dressed in Blue
B:Terry "Cuz" Teahan "Sliabh Luachra on Parade" 1980
Z:Patrick Cavanagh
M:2/4
L:1/8
R:Polka
K:D
| FA Ad | Bd AF | GB AF/A/ | BE G/F/E/F/ | 
DF Ad | Bd AF | GB A/B/A/G/ | FD D2 :| 
| FA A/B/d/e/ | fd ed | Bd AF/A/ | BE G/F/E/F/ | 
DF A/B/d/e/ | fd ed | Bd A/B/A/G/ | FD D2 :|| 

